modules/hawcons-stroke/icons/icon-13-cloud-wind.svg

<?xml version="1.0" encoding="UTF-8" standalone="no"?>
<svg width="32px" height="32px" viewBox="0 0 32 32" version="1.1" xmlns="http://www.w3.org/2000/svg" xmlns:xlink="http://www.w3.org/1999/xlink" xmlns:sketch="http://www.bohemiancoding.com/sketch/ns">
    <!-- Generator: Sketch 3.0.3 (7891) - http://www.bohemiancoding.com/sketch -->
    <title>icon 13 cloud wind</title>
    <desc>Created with Sketch.</desc>
    <defs></defs>
    <g id="Page-1" stroke="none" stroke-width="1" fill="none" fill-rule="evenodd" sketch:type="MSPage">
        <g id="icon-13-cloud-wind" sketch:type="MSArtboardGroup" fill="#929292">
            <path d="M7.10100919,9.10215438 C5.32460991,9.5117359 4,11.1046097 4,13 C4,15.209139 5.79793835,17 8.00281647,17 L24.9971835,17 C27.207878,17 29,15.2046438 29,13 C29,11.1225574 27.70144,9.54721591 25.9581226,9.11647463 L25.9581226,9.11647463 C25.9857342,8.91492842 26,8.70913019 26,8.5 C26,6.0147185 23.9852815,4 21.5,4 C20.2744589,4 19.1633432,4.48991299 18.3518132,5.28457866 C17.3608691,3.33540592 15.336385,2 13,2 C9.68629134,2 7,4.68629134 7,8 C7,8.3764904 7.03467626,8.74488173 7.10100919,9.10215438 L7.10100919,9.10215438 L7.10100919,9.10215438 Z M26.9993494,8.41452952 C28.7676457,9.18529313 30,10.9483386 30,13 C30,15.7558048 27.7616745,18 25.0005601,18 L7.99943992,18 C5.23249418,18 3,15.7614237 3,13 C3,10.9491311 4.23965876,9.18160845 6.01189661,8.41153881 L6.01189661,8.41153881 C6.00400207,8.27536702 6,8.13815088 6,8 C6,4.13400656 9.13400656,1 13,1 C15.2979469,1 17.3372745,2.10728055 18.6135384,3.81739735 C19.4525719,3.29909701 20.441357,3 21.5,3 C24.5090248,3 26.9536744,5.41637629 26.9993494,8.41452952 L26.9993494,8.41452952 L26.9993494,8.41452952 Z M30,23 C30,20.790861 28.2046438,19 26,19 C23.790861,19 22,20.7894101 22,23 L23,23 C23,21.3431458 24.3465171,20 26,20 C27.6568542,20 29,21.3465171 29,23 C29,24.6568542 27.6568766,26 25.9920699,26 L3,26 L3,27 L26.0015293,27 C28.2098237,27 30,25.2046438 30,23 L30,23 Z M21,22 C21,20.3431458 19.6534829,19 18,19 C16.3431458,19 15,20.3420576 15,21.991394 L15,22 L16,22 C16,20.8954305 16.8877296,20 18,20 C19.1045695,20 20,20.8877296 20,22 C20,23.1045695 19.1029399,24 17.9941413,24 L6,24 L6,25 L18.0005775,25 C19.6571128,25 21,23.6534829 21,22 L21,22 Z M25,30 C25,31.1045695 24.1122704,32 23,32 L23,32 C21.8954305,32 21,31.1052949 21,30.0057373 L21,30 L22,30 C22,30.5522847 22.4438648,31 23,31 L23,31 C23.5522847,31 24,30.5561352 24,30 L24,30 C24,29.4477153 23.5510798,29 22.992516,29 L9,29 L9,28 L23.0059397,28 C24.1072288,28 25,28.8877296 25,30 L25,30 L25,30 Z" id="cloud-wind" sketch:type="MSShapeGroup"></path>
        </g>
    </g>
</svg>

<svg width="32" height="32" xmlns="http://www.w3.org/2000/svg"><path d="M7.101 9.102A4.006 4.006 0 0 0 4 13c0 2.21 1.798 4 4.003 4h16.994A4.004 4.004 0 0 0 29 13a4.006 4.006 0 0 0-3.042-3.884 4.5 4.5 0 0 0-7.606-3.832 6 6 0 0 0-11.25 3.818H7.1zm19.898-.687C28.768 9.185 30 10.948 30 13c0 2.756-2.238 5-5 5H8c-2.768 0-5-2.239-5-5 0-2.05 1.24-3.818 3.012-4.588a7 7 0 0 1 12.602-4.594A5.5 5.5 0 0 1 27 8.414zM30 23a4 4 0 1 0-8 0h1c0-1.657 1.347-3 3-3 1.657 0 3 1.347 3 3 0 1.657-1.343 3-3.008 3H3v1h23.002A4.002 4.002 0 0 0 30 23zm-9-1c0-1.657-1.347-3-3-3-1.657 0-3 1.342-3 2.991V22h1c0-1.105.888-2 2-2 1.105 0 2 .888 2 2 0 1.105-.897 2-2.006 2H6v1h12c1.657 0 3-1.347 3-3zm4 8c0 1.105-.888 2-2 2-1.105 0-2-.895-2-1.994V30h1c0 .552.444 1 1 1 .552 0 1-.444 1-1 0-.552-.449-1-1.007-1H9v-1h14.006c1.101 0 1.994.888 1.994 2z" fill="#929292" fill-rule="evenodd"/></svg>
